X: 1394
T: Muy-i Jülîdem Olupdur
C: Şakir Ağa
O: Turkey
F: http://compmusic.upf.edu/node/140
N: rast--sarki--agiraksak--muy-i_julidem--sakir_aga
N: makam= rast
N: form= sarki
N: usul= agiraksak = 9/4
M: 9/4
L: 1/16
K: C _1/4B ^f  
Q: 1/4=60
%%MIDI tuningsystem comma53
G4 G8 d3c c3B B2A2 A2{c}BA A8  | A2z2 F2G2 F4 G4 A3c B2A2 A3G G3F c2BA  | 
w:  Ah  muy_ i  *  jü *  *  *  lî  |  *  dem  *  *  o lup *  *  *  dur   | 
AGFG E4 z2G2 F2G2 A2c2 B2A2 A2{c}BA AGGF G4  | 
w:  *  *  *  *  *  ser *  de  an *  *  *  ka   | 
A3B c3B A3e d2cB ABcd B2A2 G4 F4 A4  | \
w:  lâ *  *  *  *  *  *  *  *  *  *  *  *  *  *  *  *  ne  | 
z2G4A2 B4 c4 d2cB d2{f}ed d6B2 c2B2  | 
w:  si   *  *  *  *  *  *  *  *  *  *  *  SAZ  | 
d8 z2d4d2 _7/8e2de f2ed d6c2 d2=e2  | \
w:  *  Düş mü şüm  *  *  *  *  *  bir   | 
d2c4B2 z2c4e2 d3c c3B c2BA B2c2 d2e2  | 
w:  *  *  *  dâ me  kim  *  *  *  yok  | 
dcBA G4 z2c2 B2c2 d3=f e2d2 d2{f}ed dccB c4  | 
w:  *  *  *  *  *  tur  *  ha lâ *  *  *  sın   | 
d3e =f3e d3a g2f2 e2d2 c2B2 z2d_7/8e ^f2ed d2cB  | 
w:  ça  *  *  *  *  *  *  *  *  *  *  *  ça *  *  *  *  re  | 
cBA4B2 c3B g2=fe eddc cBBA dcBA G4 g4  | 
w:  si  *  *  *  *  *  *  a  *  ca *  *  *  *  *  *  *  nım   *  *  *  *  SAZ  | 
z2g4gf f3e d4 e2f2 g2{b}ag f2g4f2 b2ag  | \
w:  Zah *  *  mı *  *  ma  *  *  *  *  *  vur   | 
g8 z2g2 f2g2 a3c' b3a a3g g3f c'2ba  | 
w:  *  mer *  he min  *  *  *  o  | 
agfg e4 z2f2 e2f2 g3b a2gf agfe edd^c d4  | 
w:  *  *  *  *  *  nul *  ma dı  *  *  *  *  dil   | 
e3f g3f e3b a2gf efga f2e2 d4 ^c4 e4  | \
w:  yâ *  *  *  *  *  *  *  *  *  *  *  *  *  *  *  *  re  | 
e2e4(3d^cd e2(3dcd e2(3dcd g2=f2 e2d2 dc_7/8B4A2 d4  | 
w:  *  si    | 
d^c_7/8BA GFG2 z2d4d2 _7/8e2de f2ed d6=c2 d2=e2  | \
w:  *  *  *  *  *  *  *  Şem_ i  aş *  *  *  *  *  ka   | 
d2c4B2 z2c4e2 d3c c3B c2BA B2c2 d2e2  | 
w:  *  *  *  dâ me  kim  *  *  *  yok  | 
dcBA G4 z2c2 B2c2 d3=f e2d2 d2{f}ed dccB c4  | 
w:  *  *  *  *  *  tur  *  ha lâ *  *  *  sın   | 
d3e =f3e d3a g2f2 e2d2 c2B2 z2d_7/8e ^f2ed d2cB  | 
w:  ça  *  *  *  *  *  *  *  *  *  *  *  ça *  *  *  *  re  | 
cBA4B2 c3B g2=fe eddc cBBA dcBA G4 |
w:  si  *  *  *  *  *  *  a  *  ca *  *  *  *  *  *  *  nım    | 


